X: 32576
T: Planxty Irwin
R: waltz
M: 3/4
K: Dmajor
A2|d4c2|B3cd2|A4G2|F3ED2|
G4E2|F3GA2|c4d2|e4A2|
d4c2|B3cd2|A4G2|F3ED2|
G2E2F3G|A2d4|c2d4:|
A2d2d2|d2d3c|d2e2e2|e2e3A2|
f2f2f2|e3fd2|c3dB2|A3d4c2|
B3cd2|A4G2|F3ED2|G4E2|
F3GA2|d4c2|d4:|

